X:1
T:áÈøÀëåÌ
T:áÈøÀëåÌ
T:ùìîä øåñé
C:ùìîä øåñé
%%score [ 1 2 3 ]
L:1/8
Q:1/4=120
M:4/4
K:Dmin
V:1 treble nm="Soprano" snm="S"
V:2 treble nm="Alto" snm="A"
V:3 bass nm="Bass" snm="B"
V:1
 B3 c d2 AB | c3 B/A/ GFGA | B2 A2 G>F E2 | !breath!D4 d3 c | B4 A2 d2- | d2 cB A2 G2 | %6
w: Ba- * * * *||* * * * re-|chu et _|_ _ _|* * * * A-|
 G4 !breath!A4 | G2 AB c2 A2 | B2 dcBA G2 | cBAG A4 | (G>F) E2 z2 G2- | G2 F2 E4 | D8 || %13
w: do- nay|ha- * * * *||* * * * me-|vo- * rach ha-|* me- vo-|rach|
"^*" A4 B2 GG | A2 c2 c2 =B2 | c2 GA (B/A/ G2) ^F | G2 dd c2 B2 | A2 dd c2 d3/2c/4B/4 | A8 | G8 |] %20
w: Ba- ruch A- do-|nay ha- me- vo-|rach le- o- lam * * va-|ed le- o- lam va-|ed le- o- lam va- * *||ed|
V:2
 D2 G2 F4 | E2 F2 EDEF | G2 D4 ^C2 | !breath!D4 F4 | G4 F3 E | FD E2 F4- | F2 E2 !breath!F4 | %7
w: Ba- * *||* * re-|chu et|_ _ _|* * * A-|* do- nay|
 E3 D E2 ^F2 | G2 B,C D2 E2- | EF G4 ^F2 | !breath!G2 ^C4 D2 | ^C2 D4 C2 | D8 || ^F4 G2 EE | %14
w: ha- * * *||* * me- vo-|rach ha- *|* me- vo-|rach|Ba- ruch A- do-|
 F2 G2 A2 D2 | E2 EE D2 C2 | D2 FG (A/G/ F2) E | F2 BB A2 G2 | ^F2 G4 F2 | G8 |] %20
w: nay ha- me- vo-|rach le- o- lam va-|ed le- o- lam _ _ va-|ed le- o- lam _|_ _ va-|ed|
V:3
 G,3 A, B,C D2 | A,3 B, C3 B,/A,/ | G,2 F,2 G,2 A,2 | !breath!D,4 B,3 A, | G,A,B,C D3 C | %5
w: Ba- * * * *||* * * re-|chu et _|_ _ _ _ _ _|
 B,2 A,G, F,2 B,2 | C4 !breath!F,4 | C3 B, A,2 D2 | G,3 A, B,2 C2- | CD _E2 D4 | %10
w: * * * * A-|do- nay|ha- * * *||* * me vo-|
 !breath!G,2 A,4 B,2 | A,8 | D,8 || D4 G,2 CC | F,2 E,2 F,2 G,2 | C,2 CC B,2 A,2 | %16
w: rach ha- me-|vo-|rach|Ba- ruch A- do-|nay ha- me- vo-|rach le- o- lam va-|
 G,2 B,B, A,2 G,2 | F,2 G,2 A,2 (B,>C) | D2 C2 D4 | G,8 |] %20
w: ed le- o- lam va-|ed le- * o- *|lam * va-|ed|

